ion/car-sport-outline.svg

<svg viewBox="0 0 512 512" xmlns="http://www.w3.org/2000/svg"><g stroke-linecap="round" stroke-width="32" stroke="#000" fill="none" stroke-linejoin="round"><path d="M469.71 234.6c-7.33-9.73-34.56-16.43-46.08-33.94 -11.52-17.51-20.95-55.43-50.27-70C344.04 116.09 288 112 256 112c-32 0-88 4-117.36 18.63 -29.36 14.63-38.75 52.52-50.27 70 -11.52 17.48-38.75 24.24-46.08 33.97 -7.33 9.73-12.49 71.24-9.35 101.4 3.14 30.16 9 48 9 48h86c14.08 0 18.66-5.29 47.46-8 31.6-3 62.6-4 80.6-4 18 0 50 1 81.58 4 28.8 2.73 33.53 8 47.46 8h85s5.86-17.84 9-48c3.14-30.16-2.04-91.67-9.33-101.4Z"/><path d="M400 384h56v16h-56Z"/><path d="M56 384h56v16H56Z"/></g><g><path d="M364.47 309.16c-5.91-6.83-25.17-12.53-50.67-16.35 -25.5-3.82-34.8-4.81-57.6-4.81 -22.8 0-33.17 1.64-57.61 4.81 -24.44 3.17-42.79 8.81-50.66 16.35 -11.81 11.44 5.49 24.28 19.07 25.84 13.16 1.5 39.47.95 89.31.95s76.15.55 89.31-.95c13.56-1.65 29.62-13.6 18.85-25.84Z"/><path d="M431.57 243.05v-.001c-.12-1.65-1.46-2.94-3.1-3 -11.81-.42-23.8.42-45.07 6.69v0c-10.86 3.16-21.05 8.26-30.08 15.06 -2.28 1.78-1.47 6.59 1.39 7.1v0c17.53 2.05 35.16 3.09 52.82 3.1 10.59 0 21.52-3 23.55-12.44v0c1.03-5.45 1.2-11.02.49-16.51Z"/><path d="M80.43 243.05v-.001c.11-1.65 1.45-2.94 3.1-3 11.81-.42 23.8.42 45.07 6.69h-.001c10.85 3.16 21.04 8.26 30.08 15.06 2.28 1.78 1.47 6.59-1.39 7.1l0 0c-17.54 2.05-35.17 3.09-52.82 3.1 -10.59 0-21.52-3-23.55-12.44h0c-1.04-5.45-1.21-11.02-.49-16.51Z"/></g><g stroke-linecap="round" stroke-width="32" stroke="#000" fill="none" stroke-linejoin="round"><path d="M432 192l16 0"/><path d="M64 192l16 0"/><path d="M78 211s46.35-12 178-12 178 12 178 12"/></g></svg>

<svg xmlns="http://www.w3.org/2000/svg" width="512" height="512" viewBox="0 0 512 512"><path d="M469.71,234.6c-7.33-9.73-34.56-16.43-46.08-33.94s-20.95-55.43-50.27-70S288,112,256,112s-88,4-117.36,18.63-38.75,52.52-50.27,70S49.62,224.87,42.29,234.6,29.8,305.84,32.94,336s9,48,9,48h86c14.08,0,18.66-5.29,47.46-8C207,373,238,372,256,372s50,1,81.58,4c28.8,2.73,33.53,8,47.46,8h85s5.86-17.84,9-48S477,244.33,469.71,234.6Z" style="fill:none;stroke:#000;stroke-linecap:round;stroke-linejoin:round;stroke-width:32px"/><rect x="400" y="384" width="56" height="16" style="fill:none;stroke:#000;stroke-linecap:round;stroke-linejoin:round;stroke-width:32px"/><rect x="56" y="384" width="56" height="16" style="fill:none;stroke:#000;stroke-linecap:round;stroke-linejoin:round;stroke-width:32px"/><path d="M364.47,309.16c-5.91-6.83-25.17-12.53-50.67-16.35S279,288,256.2,288s-33.17,1.64-57.61,4.81-42.79,8.81-50.66,16.35C136.12,320.6,153.42,333.44,167,335c13.16,1.5,39.47.95,89.31.95s76.15.55,89.31-.95C359.18,333.35,375.24,321.4,364.47,309.16Z"/><path d="M431.57,243.05a3.23,3.23,0,0,0-3.1-3c-11.81-.42-23.8.42-45.07,6.69a93.88,93.88,0,0,0-30.08,15.06c-2.28,1.78-1.47,6.59,1.39,7.1A455.32,455.32,0,0,0,407.53,272c10.59,0,21.52-3,23.55-12.44A52.41,52.41,0,0,0,431.57,243.05Z"/><path d="M80.43,243.05a3.23,3.23,0,0,1,3.1-3c11.81-.42,23.8.42,45.07,6.69a93.88,93.88,0,0,1,30.08,15.06c2.28,1.78,1.47,6.59-1.39,7.1A455.32,455.32,0,0,1,104.47,272c-10.59,0-21.52-3-23.55-12.44A52.41,52.41,0,0,1,80.43,243.05Z"/><line x1="432" y1="192" x2="448" y2="192" style="fill:none;stroke:#000;stroke-linecap:round;stroke-linejoin:round;stroke-width:32px"/><line x1="64" y1="192" x2="80" y2="192" style="fill:none;stroke:#000;stroke-linecap:round;stroke-linejoin:round;stroke-width:32px"/><path d="M78,211s46.35-12,178-12,178,12,178,12" style="fill:none;stroke:#000;stroke-linecap:round;stroke-linejoin:round;stroke-width:32px"/></svg>
